X:146
T:Northumberland, or Bree is Loose TS.146
T:Northumberland Lady,aka TS.146
T:Breeches Loose,aka TS.146
M:6/8
L:1/8
Q:3/8=110
S:Thomas Sands’ MS,1810,Lincolnshire
R:jig
O:England;Lincolnshire
Z:vmp.Ruairidh Greig, 2011
K:Gm
A|BdB cAc|BGGG2A|BdB cdB|AFFF2A|
BdB cAc|BGgf2e|dcB A/B/cA|BGGG2:|
|:A|Bd(f f)dB|fdB fdB|ce(g g)ec|gec gec|
Bd(f f)dB|bag fdB|(c/d/e).c (A/B/c).A|BGGG2:|]

